!!!COM:	Bauldeweyn?/Josquin?/Mouton?
**kern	**kern
*part2	*part1
*staff2	*staff1
*clefGv2	*clefG2
*k[b-]	*k[b-]
*M2/1	*M2/1
=1-	=1-
1c	1r
2c	[1g
2c	.
=2	=2
1B-	2g]
.	2g
1A	1f
=3	=3
2r	1e
2A	.
2c	2r
2c	2e
=4	=4
2B-	2g
2G	2g
2.A	2f
.	2d
4B-	.
=5	=5
1.c	2.e
.	4f
.	1g
4B-	.
4A	.
=6	=6
1G	2r
.	2g
2r	2g
2G	[2b-
=7	=7
2G	4b-]
.	4a
2B-	4g
.	4f
4B-	4g
4A	4f
4G	4e
4F	4d
=8	=8
4G	4e
4F	4d
4E	1d
4D	.
1E	.
.	2c
=9	=9
0D	1d
.	2r
.	2f
=10	=10
2r	2g
2F	2a
2G	2b-
2A	2cc
=11	=11
2B-	2g
2c	2a
2d	2b-
[2e	[2cc
=12	=12
4e]	4cc]
4d	4b-
4c	1b-
4B-	.
1c	.
.	2a
=13	=13
1B-	0b-
2r	.
2e	.
=14	=14
2d	2r
2B-	2b-
2c	2a
2d	2f
=15	=15
2G	2g
2c	2a
2B-	2d
2G	2g
=16	=16
2A	2f
2B-	2d
2c	2e
2A	2f
=17	=17
4B-	4g
4A	4f
4B-	4g
4c	4a
2d	2b-
2B-	2g
=18	=18
2c	2a
2G	2b-
2A	2.cc
2B-	.
.	4b-
=19	=19
4c	4a
4B-	4g
4A	1g
4G	.
1A	.
.	2f
=20	=20
0G	0g
==	==
*-	*-
